Sources/FrostedUI/Resources/Icons.xcassets/swords32.imageset/swords-32.svg

<svg width="32" height="32" viewBox="0 0 32 32" fill="none" xmlns="http://www.w3.org/2000/svg" data-fui-icon="true">
  <g clip-path="url(#clip0_1083_208)">
    <path
      fill-rule="evenodd"
      clip-rule="evenodd"
      d="M5.58404 0.407189C5.38846 0.211607 5.1011 0.139548 4.83638 0.219698C4.57165 0.299848 4.37252 0.519197 4.31827 0.790419C3.71684 3.79733 4.65806 6.90585 6.82631 9.0741L19.4296 21.6773C17.6945 23.9322 17.8598 27.1787 19.9256 29.2445L20.8095 30.1284C23.0514 32.3703 26.6839 32.3739 28.9303 30.1392L28.9414 30.1283L31.5931 27.4767C31.886 27.1838 31.886 26.7089 31.5931 26.416L24.1684 18.9913L24.9638 18.1959C25.2566 17.903 25.2566 17.4282 24.9638 17.1353C24.6709 16.8424 24.196 16.8424 23.9031 17.1353L23.1076 17.9308L5.58404 0.407189ZM7.88698 8.01344C6.43309 6.55956 5.63878 4.60026 5.64003 2.5845L22.0469 18.9914L20.4559 20.5824L7.88698 8.01344ZM27.6817 0.790435C27.6275 0.519209 27.4284 0.299855 27.1636 0.2197C26.8989 0.139546 26.6115 0.211605 26.416 0.407189L17.4037 9.41941C17.1109 9.7123 17.1109 10.1872 17.4037 10.4801C17.6966 10.773 18.1715 10.773 18.4644 10.4801L26.36 2.58453C26.3612 4.60028 25.5669 6.55957 24.113 8.01344L20.0554 12.071C19.7625 12.3639 19.7625 12.8388 20.0554 13.1317C20.3483 13.4246 20.8231 13.4246 21.116 13.1317L25.1736 9.07411C27.3419 6.90584 28.2831 3.79732 27.6817 0.790435ZM7.03623 17.1353C7.32913 16.8424 7.804 16.8424 8.09689 17.1353L8.89238 17.9308L11.0138 15.8094L11.5441 15.2791L12.6047 16.3397L12.0744 16.8701L9.9532 18.9913L11.5442 20.5823L13.6654 18.461L14.1958 17.9307L15.2564 18.9914L14.7261 19.5217L12.5704 21.6774C14.3055 23.9322 14.1402 27.1787 12.0744 29.2445L11.1905 30.1284C8.945 32.3739 5.30431 32.3739 3.05879 30.1284L0.40717 27.4767C0.130827 27.2004 0.115212 26.7621 0.360325 26.4674C0.375065 26.4497 0.39075 26.4325 0.407378 26.4158L7.83176 18.9915L7.03623 18.1959C6.74334 17.903 6.74334 17.4282 7.03623 17.1353ZM10.4834 21.6431L8.89241 20.0521L1.99835 26.9462L3.58933 28.5371L10.4834 21.6431ZM11.0137 28.1838C12.4925 26.7051 12.6537 24.4077 11.4974 22.7504L4.69639 29.5514C6.35367 30.7077 8.65107 30.5465 10.1299 29.0677L11.0137 28.1838ZM20.9863 28.1838C19.5074 26.705 19.3462 24.4075 20.5027 22.7502L27.3037 29.5513C25.6465 30.7077 23.349 30.5465 21.8701 29.0677L20.9863 28.1838ZM28.411 28.5372L30.002 26.9463L23.1079 20.0521L21.5169 21.6431L28.411 28.5372Z"
      fill="currentColor"
    />
  </g>
  <defs>
    <clipPath id="clip0_1083_208"><path fill="currentColor" d="M0 0H32V32H0z" /></clipPath>
  </defs>
</svg>

<svg xmlns="http://www.w3.org/2000/svg" width="32" height="32" fill="none" data-fui-icon="true" viewBox="0 0 32 32"><g clip-path="url(#a)"><path fill="currentColor" fill-rule="evenodd" d="M5.584.407A.75.75 0 0 0 4.318.79a9.17 9.17 0 0 0 2.508 8.284L19.43 21.677a5.75 5.75 0 0 0 .496 7.567l.884.884a5.75 5.75 0 0 0 8.12.011l.011-.01 2.652-2.652a.75.75 0 0 0 0-1.061l-7.425-7.425.796-.795a.75.75 0 0 0-1.06-1.06l-.796.795zm2.303 7.606A7.67 7.67 0 0 1 5.64 2.585L22.047 18.99l-1.591 1.591zM27.682.79a.75.75 0 0 0-1.266-.383L17.404 9.42a.75.75 0 0 0 1.06 1.061l7.896-7.895a7.67 7.67 0 0 1-2.247 5.428l-4.058 4.058a.75.75 0 0 0 1.061 1.06l4.058-4.057A9.17 9.17 0 0 0 27.682.79M7.036 17.135a.75.75 0 0 1 1.06 0l.796.796 2.122-2.122.53-.53 1.06 1.06-.53.531-2.12 2.121 1.59 1.591 2.121-2.121.53-.53 1.061 1.06-.53.53-2.156 2.156a5.75 5.75 0 0 1-.496 7.567l-.883.884a5.75 5.75 0 0 1-8.132 0L.407 27.477a.75.75 0 0 1 0-1.061l7.425-7.425-.796-.795a.75.75 0 0 1 0-1.06m3.447 4.508-1.59-1.59-6.895 6.893 1.591 1.591zm.53 6.54a4.25 4.25 0 0 0 .484-5.433l-6.8 6.801a4.25 4.25 0 0 0 5.433-.483zm9.973 0a4.25 4.25 0 0 1-.483-5.433l6.8 6.801a4.25 4.25 0 0 1-5.433-.483zm7.425.354 1.591-1.59-6.894-6.895-1.591 1.591z" clip-rule="evenodd"/></g><defs><clipPath id="a"><path fill="currentColor" d="M0 0h32v32H0z"/></clipPath></defs></svg>
